X:18008
T:Rochdale Coconut Dance
R:Reel
C:Trad. Morris Dance
O:England, Rochdale
M:4/4
L:1/8
Q:1/4=180
K:G
"Em"EFGF E2 B2|EFGF E2 B2|"Am"c2 Ac "G"B2 G2|"D"AG F2 "Em"E2 D2:|
"G"G2 BB G2 B2|"D"AGFG A2 dd|"G"G2 BB G2 B2|"D"AGFE "G"D2 d2|
"G"G2 BB G2 B2|"D"AGFG A2 dd|"G"BdcB "Am"AcBA|"G"G2 F2 G2 D2|]

